X:1
T:Title
%%score { ( 1 3 ) | ( 2 4 ) }
L:1/8
Q:1/4=80
M:2/4
K:C
V:1 treble nm="Grand Piano"
V:3 treble 
V:2 bass 
V:4 bass 
V:1
 E2 E[DF] | [EG][Ge] [Ec]2 | B2 z2 | [Ec][FA] [EG]2 | [CE][CE]/[B,D]/ [CE][DF] | [EG][Ge] [Ec]2 | %6
w: Charles~Converse * *||||||
 [Fd][Fd]/[Fd]/ [FA]B | [Ec]4 | c2 BA | [EG][DF] E2 | A2 z2 | [DGB][C^FA] [G,EG]2 | %12
w: ||||||
 [G,CE][G,CE]/[G,B,D]/ [G,CE][G,DF] | [EG][Ge] [Ec]2 | dd/d/ [FA]B | [Ec]4 | c2 BA | [EG][DF] E2 | %18
w: ||||||
 A2 z2 | [DGB][C^FA] [G,EG]2 | [G,CE][G,CE]/[G,B,D]/ [G,CE][G,DF] | [EG][Ge] [Ec]2 | dd/d/ [FA]B | %23
w: |||||
 [Ec]4 |] %24
w: |
V:2
 [C,G,C]2 [C,G,C][C,G,] | [C,C][C,C] [C,G,]2 | [G,F]2 [G,CF][G,F] | [C,G,][C,C] [C,C]2 | %4
 [C,G,][C,G,]/[G,,G,]/ [C,G,][C,G,] | [C,C][C,C] [C,G,]2 | [F,A,][E,A,]/[F,A,]/ [D,D][G,F] | %7
 [C,G,]4 | [F,A,F]2 [F,DF][F,CF] | [C,C][C,G,] [C,G,C]2 | .C2 z2 | G,D, z F | C,C,/G,,/ C,C, | %13
 [C,C][C,C] [C,G,]2 | [F,A,F][F,A,F]/[F,A,F]/ [D,D][G,F] | [C,G,]4 | [F,A,F]2 [F,DF][F,CF] | %17
 [C,C][C,G,] [C,G,C]2 | CA, [D,A,]D, | G,D, z F | C,C,/G,,/ C,C, | [C,C][C,C] [C,G,]2 | %22
 [F,A,F][F,A,F]/[F,A,F]/ [D,D][G,F] | [C,G,]4 |] %24
V:3
 x4 | x4 | z D AB | x4 | x4 | x4 | x4 | x4 | x4 | x4 | z F [Fd][D^Fc] | x4 | x4 | x4 | x4 | x4 | %16
 x4 | x4 | z F [Fd][D^Fc] | x4 | x4 | x4 | x4 | x4 |] %24
V:4
 x4 | x4 | x4 | x4 | x4 | x4 | x4 | x4 | x4 | x4 | F,-[F,A,] [D,A,]D, | z2 G,,2 | x4 | x4 | x4 | %15
 x4 | x4 | x4 | F,2 z2 | z2 G,,2 | x4 | x4 | x4 | x4 |] %24

